svg/aws-shield.svg

<?xml version="1.0" encoding="UTF-8"?>
<svg xmlns="http://www.w3.org/2000/svg" xmlns:xlink="http://www.w3.org/1999/xlink" width="32" height="32" viewBox="0 0 32 32">
<defs>
<linearGradient id="linear-pattern-0" gradientUnits="userSpaceOnUse" x1="0" y1="1" x2="1" y2="0" gradientTransform="matrix(32, 0, 0, 32, 0, 0)">
<stop offset="0" stop-color="rgb(74.117649%, 3.137255%, 8.627451%)" stop-opacity="1"/>
<stop offset="1" stop-color="rgb(100%, 32.156864%, 32.156864%)" stop-opacity="1"/>
</linearGradient>
</defs>
<rect x="-3.2" y="-3.2" width="38.4" height="38.4" fill="url(#linear-pattern-0)"/>
<path fill-rule="evenodd" fill="rgb(100%, 100%, 100%)" fill-opacity="1" d="M 21.5 19.492188 L 20.5 19.492188 L 20.5 20.992188 L 19 20.992188 L 19 21.992188 L 20.5 21.992188 L 20.5 23.492188 L 21.5 23.492188 L 21.5 21.992188 L 23 21.992188 L 23 20.992188 L 21.5 20.992188 Z M 24 21.492188 C 24 19.839844 22.65625 18.492188 21 18.492188 C 19.347656 18.492188 18 19.839844 18 21.492188 C 18 23.148438 19.34375 24.492188 21 24.492188 C 22.65625 24.492188 24 23.148438 24 21.492188 M 25 21.492188 C 25 23.699219 23.207031 25.492188 21 25.492188 C 18.796875 25.492188 17 23.699219 17 21.492188 C 17 19.285156 18.796875 17.492188 21 17.492188 C 23.207031 17.492188 25 19.285156 25 21.492188 M 14 23.136719 L 14 9.296875 L 10 11.304688 L 10 18.820312 C 10.003906 18.992188 10.078125 22.832031 14 23.136719 M 19.5 16.722656 L 19.5 11.328125 L 15 9.265625 L 15 23.148438 C 15.425781 23.117188 15.839844 23.054688 16.21875 22.957031 C 16.320312 23.277344 16.449219 23.589844 16.613281 23.886719 C 15.925781 24.074219 15.214844 24.167969 14.5 24.167969 C 9.0625 24.167969 9 18.875 9 18.820312 L 9 11 C 9 10.808594 9.109375 10.636719 9.277344 10.550781 L 14.277344 8.042969 C 14.414062 7.972656 14.574219 7.96875 14.710938 8.035156 L 20.210938 10.554688 C 20.386719 10.636719 20.5 10.8125 20.5 11.007812 L 20.5 16.519531 C 20.160156 16.550781 19.824219 16.617188 19.5 16.722656 M 17.878906 25.394531 C 18.210938 25.660156 18.570312 25.878906 18.957031 26.050781 C 17.738281 26.570312 16.109375 26.890625 14.5 26.890625 C 12.253906 26.890625 10.421875 26.179688 9.058594 24.78125 C 6.417969 22.070312 6.496094 17.765625 6.5 17.582031 L 6.5 9 C 6.5 8.804688 6.613281 8.628906 6.789062 8.546875 L 14.289062 5.046875 C 14.417969 4.984375 14.570312 4.984375 14.699219 5.042969 L 22.699219 8.539062 C 22.882812 8.621094 23 8.800781 23 9 L 23 16.914062 C 22.679688 16.769531 22.34375 16.664062 22 16.59375 L 22 9.324219 L 14.507812 6.050781 L 7.5 9.316406 L 7.5 17.59375 C 7.5 17.648438 7.429688 21.683594 9.777344 24.089844 C 10.945312 25.285156 12.535156 25.890625 14.5 25.890625 C 15.695312 25.890625 16.890625 25.707031 17.878906 25.394531 M 17.878906 25.394531 "/>
</svg>

<svg role="img" viewBox="0 0 32 32" xmlns="http://www.w3.org/2000/svg"><defs><linearGradient gradientTransform="scale(32)" gradientUnits="userSpaceOnUse" id="aws-shield_svg__a" x1="0" x2="1" y1="1" y2="0"><stop offset="0" stop-color="rgb(74.117649%, 3.137255%, 8.627451%)"/><stop offset="1" stop-color="rgb(100%, 32.156864%, 32.156864%)"/></linearGradient></defs><path d="M-3.2-3.2h38.4v38.4H-3.2z" fill="url(#aws-shield_svg__a)"/><path d="M21.5 19.492h-1v1.5H19v1h1.5v1.5h1v-1.5H23v-1h-1.5Zm2.5 2c0-1.652-1.344-3-3-3-1.652 0-3 1.348-3 3a3 3 0 0 0 6 0m1 0c0 2.207-1.793 4-4 4-2.203 0-4-1.793-4-4s1.797-4 4-4c2.207 0 4 1.793 4 4m-11 1.645V9.297l-4 2.008v7.515c.004.172.078 4.012 4 4.317m5.5-6.414v-5.395L15 9.266v13.882c.426-.03.84-.093 1.219-.191.101.32.23.633.394.93a8 8 0 0 1-2.113.281c-5.437 0-5.5-5.293-5.5-5.348V11a.51.51 0 0 1 .277-.45l5-2.507a.48.48 0 0 1 .434-.008l5.5 2.52a.5.5 0 0 1 .289.453v5.512a4.6 4.6 0 0 0-1 .203m-1.621 8.672q.498.398 1.078.656c-1.219.52-2.848.84-4.457.84-2.246 0-4.078-.711-5.441-2.11-2.641-2.71-2.563-7.015-2.559-7.199V9a.5.5 0 0 1 .29-.453l7.5-3.5a.5.5 0 0 1 .41-.004l8 3.496c.183.082.3.262.3.461v7.914a4.7 4.7 0 0 0-1-.32v-7.27l-7.492-3.273L7.5 9.316v8.278c0 .054-.07 4.09 2.277 6.496 1.168 1.195 2.758 1.8 4.723 1.8 1.195 0 2.39-.183 3.379-.495m0 0" fill="rgb(100%, 100%, 100%)" fill-rule="evenodd"/></svg>
